X:246
T:Our Father Thou in Heaven Above
%%stretchlast false
M:4/4
L:1/4
K:G clef=C1
"^ii"[A,Ace]2 "^IV"[CEGe] "^ii"[A,EAc] | "^I"[G,GBd] "^vi"[E,GBe] "^ii"[A,EAc] "^VI"[E,E^GB] | "^II"[A,^CA]2 "^ii"[A,Ace]2 | "^vi"[E,GBe] "^iii"[B,FBd] "^I"[G,Bdg] "^IV"[CGce] | "^♭VII"[=F,=FAc] "^v¹"[=F,Ad] "^V/ii"[E,^GBe]2 | "^ii"[A,Ace]2 "^vi"[EGBg] "^V"[DFda] | "^IV"[CGec'] "^I"[G,Gdb] "^ii"[A,Eca] "^VI"[F,EB^g] | "^V/V"[A,E^ca]2 "^V"[DFda]2 | "^I"[G,Gdb] "^V¹"[F,Ada] "^I"[G,Bdg] "^V"[D,Adf] | "^vi"[E,GBe] "^III"[B,FB^d] "^VI"[E,^GBe]2 | "^V"[D,Fda]2 "^I"[G,Bdg] "^V"[DAdf] | "^vi"[EGBg] "^IV"[CGce] "^IV¹"[E,Gce] "^I"[G,GBd] | "^IV"[CEc]2 "^ii"[A,CAe]2 | "^v"[D,DA=f] "^VI"[E,B,^Ge] "^♭VII"[=F,A,Ac]/ [=F,CAc]/ "^v"[D,=FAd] | "^ii"[A,EAc] "^VI"[E,E^GB]/ "^VI7"[E,D^GB]/ "^II"[A,^CA]2 |]
